X:2090
T:Myr hie mee dys Sostyn 
C:Tom Kermode, Bradda
O:Isle of Man
S:Traditional 
Z:Clague Collection
B:Kiaull Vannin #90 
M:2/4 
L:1/4
Q:100 
K:G 
E|G2 Ac|B2c A|G A/G/F F|E3 B|e dc B|c B eA|BG A/B/ c|B3 B| 
e d c B|c B e c|B G d G|F3 E/F/|G2 A c|B2 c A|G A/G/ F F|E3|| 

